assets/icons/static_dynamic_events/tecnhinal_inspections.svg

<svg fill="none" height="50" viewBox="0 0 50 50" width="50" xmlns="http://www.w3.org/2000/svg"><path d="m37.3578 33.8268c2.9042-3.6446 4.4986-8.2573 4.4986-12.9271 0-11.50336-9.3961-20.8997-20.9567-20.8997-11.56031 0-20.8997 9.39654-20.8997 20.8997 0 11.5034 9.39613 20.8998 20.8997 20.8998 4.6127 0 9.2254-1.5946 12.9271-4.4987l12.5854 12.5854 3.5878-3.5878zm-16.4579 3.0182c-8.7129 0-15.83137-7.1184-15.83137-15.8314 0-8.7129 7.11847-15.83138 15.83137-15.83138 8.713 0 15.8314 7.11848 15.8314 15.83138 0 8.713-7.1184 15.8314-15.8314 15.8314z" fill="#525252"/></svg>

<svg width="50" height="50" viewBox="0 0 50 50" fill="none" xmlns="http://www.w3.org/2000/svg">
<path d="M37.3578 33.8268C40.262 30.1822 41.8564 25.5695 41.8564 20.8997C41.8564 9.39634 32.4603 0 20.8997 0C9.33939 0 0 9.39654 0 20.8997C0 32.4031 9.39613 41.7995 20.8997 41.7995C25.5124 41.7995 30.1251 40.2049 33.8268 37.3008L46.4122 49.8862L50 46.2984L37.3578 33.8268ZM20.8999 36.845C12.187 36.845 5.06853 29.7266 5.06853 21.0136C5.06853 12.3007 12.187 5.18222 20.8999 5.18222C29.6129 5.18222 36.7313 12.3007 36.7313 21.0136C36.7313 29.7266 29.6129 36.845 20.8999 36.845Z" fill="#525252"/>
</svg>
